svg/file-icons/Moho.svg

<svg version="1.1" xmlns="http://www.w3.org/2000/svg" width="512px" height="512px"><path d="M134.9343414,399.0183411c4.3805389,12.4608459,10.1891785,26.73349,16.4374084,34.2446594c-68.146843,75.6806641-176.243576,6.6964417-146.2204895-80.3033447l58.5987244-195.5344849L134.9343414,399.0183411z M82.2655411,106.8459015c-4.5526047,17.1538773-3.9366074,35.2666473,1.1270447,52.2766876c30.5902786,102.7601624,67.1283951,228.5702515,78.7976761,255.4477539c50.1714935,89.5920105,188.6155853,35.4223633,151.8828278-74.7757568l-72.5521393-235.5088959C220.1235352,28.948082,104.238472,24.053587,82.2655411,106.8459015z M148.5982819,157.4475098c-19.2188416-11.0798645-19.2188416-38.9299469-0.0000153-50.0098267s43.3728333,2.8451614,43.3728333,25.0049133S167.8171082,168.5273895,148.5982819,157.4475098z M349.8041992,405.6705627c39.2153931,95.6583252,197.4370117,47.8291626,155.041748-67.4264221l-72.5521851-235.5088348c-29.8070374-98.5852661-189.2329254-59.1315231-158.4835205,49.2415161L349.8041992,405.6705627z M340.5750122,157.1009827c-19.2188416-11.0798645-19.2188416-38.9299545,0-50.0098267c19.218811-11.0798798,43.3728027,2.8451614,43.3728027,25.0049133S359.7938538,168.1808624,340.5750122,157.1009827z"/></svg>

<svg xmlns="http://www.w3.org/2000/svg" width="512" height="512"><path d="M134.934 399.018c4.38 12.461 10.19 26.734 16.438 34.245-68.147 75.68-176.244 6.696-146.22-80.303L63.75 157.425l71.184 241.593zM82.266 106.846c-4.553 17.154-3.937 35.267 1.127 52.277 30.59 102.76 67.128 228.57 78.797 255.447 50.172 89.592 188.616 35.423 151.883-74.775l-72.552-235.51c-21.397-75.337-137.283-80.231-159.255 2.56zm66.332 50.602c-19.219-11.08-19.219-38.93 0-50.01s43.373 2.845 43.373 25.005-24.154 36.084-43.373 25.005zM349.804 405.67c39.216 95.658 197.437 47.829 155.042-67.427l-72.552-235.509C402.487 4.15 243.06 43.604 273.81 151.977l75.994 253.694zm-9.229-248.57c-19.219-11.08-19.219-38.93 0-50.01 19.219-11.08 43.373 2.845 43.373 25.005s-24.154 36.085-43.373 25.005z"/></svg>
